X:9
T:No.129 Priest in his Boots
M:6/8
L:1/8
C:jig
K:D
FAA ABc|ded cBA|FGA BAG|
cBc A2G|FAA ABc|ded cBA|
gfg bag|[1edc dAG:|[2edc dge||
fed efg|afd cBA|FGA BAG|
cBc A2g|fed efg|afd cBA|
gfg bag|[1edc dge:|[2edc dAG||
